images/icon-document.svg

<svg enable-background="new 0 0 54 62" viewBox="0 0 54 62" xmlns="http://www.w3.org/2000/svg"><path d="m44 0h-44v62h54v-52zm-25 49h-8v-8h8zm0-12h-8v-8h8zm0-12h-8v-8h8zm24 24h-20v-2h20zm0-6h-20v-2h20zm0-6h-20v-2h20zm0-6h-20v-2h20zm0-6h-20v-2h20zm0-6h-20v-2h20z" fill="#ef6c00"/></svg>

<?xml version="1.0" encoding="utf-8"?>
<!-- Generator: Adobe Illustrator 19.2.0, SVG Export Plug-In . SVG Version: 6.00 Build 0)  -->
<svg version="1.1" id="Layer_1" xmlns="http://www.w3.org/2000/svg" xmlns:xlink="http://www.w3.org/1999/xlink" x="0px" y="0px"
	 viewBox="0 0 54 62" style="enable-background:new 0 0 54 62;" xml:space="preserve">
<style type="text/css">
	.st0{fill:#EF6C00;}
</style>
<title>icon-document</title>
<path class="st0" d="M44,0H0v62h54V10L44,0z M19,49h-8v-8h8V49z M19,37h-8v-8h8V37z M19,25h-8v-8h8V25z M43,49H23v-2h20V49z M43,43
	H23v-2h20V43z M43,37H23v-2h20V37z M43,31H23v-2h20V31z M43,25H23v-2h20V25z M43,19H23v-2h20V19z"/>
</svg>
